lib/flags/gw-guinea-bissau.svg

<svg xmlns="http://www.w3.org/2000/svg" fill="none" aria-hidden="true" viewBox="0 0 42 30"><g id="Country=GW - Guinea-Bissau, Size=sm (36x24)" filter="url(#filter0_dd_91_27794)"><g clip-path="url(#clip0_91_27794)"><g id="flag"><mask id="mask0_91_27794" width="36" height="24" x="3" y="2" maskUnits="userSpaceOnUse" style="mask-type:alpha"><rect id="mask" width="36" height="24" x="3" y="2" fill="white"/></mask><g mask="url(#mask0_91_27794)"><g id="contents"><path id="middle" fill="#FBCD17" fill-rule="evenodd" d="M21 2H39V14H21V2Z" clip-rule="evenodd"/><path id="right" fill="#0B9E7A" fill-rule="evenodd" d="M21 14H39V26H21V14Z" clip-rule="evenodd"/><path id="left" fill="#E11C1B" fill-rule="evenodd" d="M3 2H21V26H3V2Z" clip-rule="evenodd"/><path id="Star 5" fill="#1D1D1D" fill-rule="evenodd" d="M13.047 16.6063L9.12565 19.024L10.3787 14.883L7.5 12.2378L11.3979 12.0948L13.047 8L14.6961 12.0948H18.5873L15.7153 14.883L17.1537 18.7796L13.047 16.6063Z" clip-rule="evenodd"/></g></g></g></g></g><defs><filter id="filter0_dd_91_27794" width="42" height="30" x="0" y="0" color-interpolation-filters="sRGB" filterUnits="userSpaceOnUse"><feFlood flood-opacity="0" result="BackgroundImageFix"/><feColorMatrix in="SourceAlpha" result="hardAlpha" values="0 0 0 0 0 0 0 0 0 0 0 0 0 0 0 0 0 0 127 0"/><feOffset dy="1"/><feGaussianBlur stdDeviation="1"/><feColorMatrix values="0 0 0 0 0.0627451 0 0 0 0 0.0941176 0 0 0 0 0.156863 0 0 0 0.06 0"/><feBlend in2="BackgroundImageFix" result="effect1_dropShadow_91_27794"/><feColorMatrix in="SourceAlpha" result="hardAlpha" values="0 0 0 0 0 0 0 0 0 0 0 0 0 0 0 0 0 0 127 0"/><feOffset dy="1"/><feGaussianBlur stdDeviation="1.5"/><feColorMatrix values="0 0 0 0 0.0627451 0 0 0 0 0.0941176 0 0 0 0 0.156863 0 0 0 0.1 0"/><feBlend in2="effect1_dropShadow_91_27794" result="effect2_dropShadow_91_27794"/><feBlend in="SourceGraphic" in2="effect2_dropShadow_91_27794" result="shape"/></filter><clipPath id="clip0_91_27794"><rect width="36" height="24" x="3" y="2" fill="white" rx="2"/></clipPath></defs></svg>

<svg xmlns="http://www.w3.org/2000/svg" fill="none" aria-hidden="true" viewBox="0 0 42 30"><g filter="url(#a)"><g clip-path="url(#b)"><mask id="c" width="36" height="24" x="3" y="2" maskUnits="userSpaceOnUse" style="mask-type:alpha"><path fill="#fff" d="M3 2h36v24H3z"/></mask><g fill-rule="evenodd" clip-rule="evenodd" mask="url(#c)"><path fill="#FBCD17" d="M21 2h18v12H21V2Z"/><path fill="#0B9E7A" d="M21 14h18v12H21V14Z"/><path fill="#E11C1B" d="M3 2h18v24H3V2Z"/><path fill="#1D1D1D" d="m13.047 16.606-3.921 2.418 1.253-4.141L7.5 12.238l3.898-.143L13.047 8l1.65 4.095h3.89l-2.872 2.788 1.439 3.897-4.107-2.174Z"/></g></g></g><defs><clipPath id="b"><rect width="36" height="24" x="3" y="2" fill="#fff" rx="2"/></clipPath><filter id="a" width="42" height="30" x="0" y="0" color-interpolation-filters="sRGB" filterUnits="userSpaceOnUse"><feFlood flood-opacity="0" result="BackgroundImageFix"/><feColorMatrix in="SourceAlpha" result="hardAlpha" values="0 0 0 0 0 0 0 0 0 0 0 0 0 0 0 0 0 0 127 0"/><feOffset dy="1"/><feGaussianBlur stdDeviation="1"/><feColorMatrix values="0 0 0 0 0.0627451 0 0 0 0 0.0941176 0 0 0 0 0.156863 0 0 0 0.06 0"/><feBlend in2="BackgroundImageFix" result="effect1_dropShadow_91_27794"/><feColorMatrix in="SourceAlpha" result="hardAlpha" values="0 0 0 0 0 0 0 0 0 0 0 0 0 0 0 0 0 0 127 0"/><feOffset dy="1"/><feGaussianBlur stdDeviation="1.5"/><feColorMatrix values="0 0 0 0 0.0627451 0 0 0 0 0.0941176 0 0 0 0 0.156863 0 0 0 0.1 0"/><feBlend in2="effect1_dropShadow_91_27794" result="effect2_dropShadow_91_27794"/><feBlend in="SourceGraphic" in2="effect2_dropShadow_91_27794" result="shape"/></filter></defs></svg>
